X:1
T:Title
%%score { ( 1 3 ) | ( 2 4 ) }
L:1/8
M:4/4
K:Ab
V:1 treble nm="Grand Piano"
V:3 treble 
V:2 bass 
V:4 bass 
V:1
 z4 z2[Q:1/4=116] E2 | [CA]2 [FA]2 [EA]2 [DA]2 | [CA]6 B2 | c2 c2 c2 [Ec]2 | [Ec]6 [Fc]2 | %5
 [Fd]2 [Fd]2 [EB]2 [EB]2 | [Ee]2 [Ee]2 [Ec]2 [A,EA]2 | [B,EG]2 [CEA]2 [B,EG]2 [A,=DF]2 | %8
 B6[K:bass][K:treble] z2 | [CA]2 [FA]2 [EA]2 [DA]2 | [CA]6 B2 | c2 c2 c2 [=Ec]2 | [Fc]6 [Ec]2 | %13
 [Dd]2 [Fd]2 [EB]2 [EB]2 | [Ee]2 [Ec]2 [EA]2 [Fd]2 | [Ec]4 [DB]4 |[M:3/4] [A,CA]6 |[M:1/4] E2 | %18
[M:4/4] [A,A]2- [A,EA]2 B2 B2 | c2 A2 z2 c2 | d2 [GB]2 z2 d2 | e2 c2 z2 A2 | f4 e2 e2 | %23
 e2 d2 c2 A2 | B2 A2 G2 [A,=DF]2 | [G,E]6 E2 | [A,A]2- [A,EA]2 B2 B2 | c2 A2 z2 c2 | %28
 d2 [GB]2 z2 d2 | e2 c2 z2 A2 | f2 e2 d2 c2 | B2 c2 [Fd]2 [Af]2 | [Ae]4 [EG]2 [EG]2 | %33
[M:3/4] [CEA]6 |] %34
V:2
 z4 z2 E,2 | [A,,E,]2 [A,,A,]2 [A,,G,]2 [A,,F,]2 | [A,,E,]6 [E,G,E]2 | %3
 [A,E]2 [F,A,E]2 [E,A,E]2 [C,A,]2 | [A,,A,]6 [F,A,]2 | [B,,B,]2 [B,,B,]2 [E,G,]2 [D,G,]2 | %6
 [C,E,]2 [C,G,]2 [A,,A,]2 C,2 | B,,2 B,,2 B,,2 B,,2 | [E,G,D]6 [E,G,D]2 | %9
 [A,,A,]2 [A,,A,]2 [A,,G,]2 [A,,F,]2 | [A,,E,]6 [E,G,E]2 | [A,E]2 [A,E]2 [G,B,=E]2 [C,B,]2 | %12
 [F,A,]6 [F,=A,]2 | [B,,B,]2 [B,,A,]2 [E,G,]2 [D,G,]2 | [C,A,]2 [A,,A,]2 [C,A,]2 [D,A,]2 | %15
 [E,A,]4 [E,G,]4 |[M:3/4] A,,6 |[M:1/4] E,2 |[M:4/4] A,,2 C,2 [E,G,E]2 [E,G,E]2 | %19
 [A,E]2 [A,CE]2 z2 [A,EA]2 | [B,EG]2[K:bass] [E,E]2 z2[K:treble] [B,EG]2 | %21
 [CEA]2 [A,EA]2 z2 [CE]2 | [DA]4 [CEA]2 [CEA]2 | [B,EG]4 [A,EA]2 [A,CE]2 | %24
 [G,B,E]2 [A,CF]2[K:bass] [B,E]2 B,,2 | E,2 D,2 B,,2 E,2 | A,,2 C,2 [E,G,E]2 [E,G,E]2 | %27
 [A,E]2 [A,CE]2 z2 [A,EA]2 | [B,EG]2[K:bass] [E,E]2 z2[K:treble] [B,EG]2 | %29
 [CEA]2 [A,EA]2 z2 [CE]2 | A6 z2 | [D,D]2 [C,=A,]2 [B,,B,]2 [=D,_C]2 | [E,C]4 [E,D]2 [E,D]2 | %33
[M:3/4] [A,,A,]6 |] %34
V:3
 x8 | x8 | x8 | x8 | x8 | x8 | x8 | x8 | z2[K:bass] D,2 B,,2[K:treble] E2 | x8 | x8 | x8 | x8 | %13
 x8 | x8 | x8 |[M:3/4] x6 |[M:1/4] x2 |[M:4/4] C2 z2 z4 | x8 | x8 | x8 | x8 | x8 | x8 | x8 | %26
 C2 z2 z4 | x8 | x8 | x8 | x8 | F4 z4 | x8 |[M:3/4] x6 |] %34
V:4
 x8 | x8 | x8 | x8 | x8 | x8 | x8 | x8 | x8 | x8 | x8 | x8 | x8 | x8 | x8 | x8 |[M:3/4] x6 | %17
[M:1/4] x2 |[M:4/4] x8 | x8 | x2[K:bass] x4[K:treble] x2 | x8 | x8 | x8 | x4[K:bass] x4 | x8 | x8 | %27
 x8 | x2[K:bass] x4[K:treble] x2 | x8 | D2 [CE]2 [B,EG]2 [A,EA]2 | x8 | x8 |[M:3/4] x6 |] %34

